svgs/sharp-light/ruler-vertical.svg

<svg xmlns="http://www.w3.org/2000/svg" viewBox="0 0 256 512"><!--! Font Awesome Pro 6.6.0 by @fontawesome - https://fontawesome.com License - https://fontawesome.com/license (Commercial License) Copyright 2024 Fonticons, Inc. --><path d="M224 32l0 64-64 0-16 0 0 32 16 0 64 0 0 64-64 0-16 0 0 32 16 0 64 0 0 64-64 0-16 0 0 32 16 0 64 0 0 64-64 0-16 0 0 32 16 0 64 0 0 64L32 480 32 32l192 0zM32 0L0 0 0 32 0 480l0 32 32 0 192 0 32 0 0-32 0-448 0-32L224 0 32 0z"/></svg>

<svg xmlns="http://www.w3.org/2000/svg" viewBox="0 0 256 512"><!--! Font Awesome Pro 6.4.0 by @fontawesome - https://fontawesome.com License - https://fontawesome.com/license (Commercial License) Copyright 2023 Fonticons, Inc. --><path d="M224 32V96H160 144v32h16 64v64H160 144v32h16 64v64H160 144v32h16 64v64H160 144v32h16 64v64H32V32H224zM32 0H0V32 480v32H32 224h32V480 32 0H224 32z"/></svg>
